symbolic/32x32/apps/preferences-desktop-navigation.svg

<svg xmlns="http://www.w3.org/2000/svg" width="32" height="32" version="1.1">
 <circle style="opacity:0.2" cx="16.5" cy="16.5" r="14.5"/>
 <circle style="fill:#788085" cx="16.5" cy="15.5" r="14.5"/>
 <path style="opacity:0.2" d="M 15.108825,5.0912479 C 9.8566759,5.7204013 5.7204014,9.8566758 5.0912479,15.108825 L 7.8750003,16.5 5.0912479,17.891175 c 0.6291535,5.252149 4.765428,9.388424 10.0175771,10.017577 L 16.5,25.125 l 1.391175,2.783752 c 5.252149,-0.629153 9.388424,-4.765428 10.017577,-10.017577 L 25.125,16.5 27.908752,15.108825 C 27.279599,9.8566758 23.143324,5.7204013 17.891175,5.0912479 L 16.5,7.8750002 Z"/>
 <path style="fill:#ffffff" d="M 15.108825,4.0912479 C 9.8566759,4.7204013 5.7204014,8.8566758 5.0912479,14.108825 L 7.8750003,15.5 5.0912479,16.891175 c 0.6291535,5.252149 4.765428,9.388424 10.0175771,10.017577 L 16.5,24.125 l 1.391175,2.783752 c 5.252149,-0.629153 9.388424,-4.765428 10.017577,-10.017577 L 25.125,15.5 27.908752,14.108825 C 27.279599,8.8566758 23.143324,4.7204013 17.891175,4.0912479 L 16.5,6.8750002 Z"/>
 <path style="fill:#4f4f4f" d="M 18.357143,17.357143 10,22 14.642858,13.642858 Z"/>
 <path style="fill:#e93140" d="M 14.642858,13.642858 23,9.0000004 18.357143,17.357143 Z"/>
 <path style="opacity:0.2" d="M 18,16.5 A 1.5000004,1.5000004 0 0 1 16.5,18 1.5000004,1.5000004 0 0 1 15,16.5 1.5000004,1.5000004 0 0 1 16.5,15 1.5000004,1.5000004 0 0 1 18,16.5 Z"/>
 <path style="fill:#bdc3c7" d="M 18,15.5 A 1.5000004,1.5000004 0 0 1 16.5,17 1.5000004,1.5000004 0 0 1 15,15.5 1.5000004,1.5000004 0 0 1 16.5,14 1.5000004,1.5000004 0 0 1 18,15.5 Z"/>
 <path style="fill:#ffffff;opacity:0.2" d="M 16.5 1 A 14.5 14.5 0 0 0 2 15.5 A 14.5 14.5 0 0 0 2.0214844 16.080078 A 14.5 14.5 0 0 1 16.5 2 A 14.5 14.5 0 0 1 30.978516 15.919922 A 14.5 14.5 0 0 0 31 15.5 A 14.5 14.5 0 0 0 16.5 1 z"/>
 <path style="fill:#ffffff;opacity:0.2" d="M 16.5 14 A 1.5000004 1.5000004 0 0 0 15 15.5 A 1.5000004 1.5000004 0 0 0 15.087891 16 A 1.5000004 1.5000004 0 0 1 16.5 15 A 1.5000004 1.5000004 0 0 1 17.912109 16 A 1.5000004 1.5000004 0 0 0 18 15.5 A 1.5000004 1.5000004 0 0 0 16.5 14 z"/>
</svg>

<svg xmlns="http://www.w3.org/2000/svg" width="32" height="32"><circle style="opacity:.2" cx="16.5" cy="16.5" r="14.5"/><circle style="fill:#788085" cx="16.5" cy="15.5" r="14.5"/><path style="opacity:.2" d="M15.109 5.091A11.459 11.459 0 0 0 5.09 15.11L7.875 16.5l-2.784 1.391A11.459 11.459 0 0 0 15.11 27.91l1.391-2.784 1.391 2.784A11.459 11.459 0 0 0 27.91 17.89L25.125 16.5l2.784-1.391A11.459 11.459 0 0 0 17.89 5.09L16.5 7.875z"/><path style="fill:#fff" d="M15.109 4.091A11.459 11.459 0 0 0 5.09 14.11L7.875 15.5l-2.784 1.391A11.459 11.459 0 0 0 15.11 26.91l1.391-2.784 1.391 2.784A11.459 11.459 0 0 0 27.91 16.89L25.125 15.5l2.784-1.391A11.459 11.459 0 0 0 17.89 4.09L16.5 6.875z"/><path style="fill:#4f4f4f" d="M18.357 17.357 10 22l4.643-8.357z"/><path style="fill:#e93140" d="M14.643 13.643 23 9l-4.643 8.357z"/><path style="opacity:.2" d="M18 16.5a1.5 1.5 0 0 1-1.5 1.5 1.5 1.5 0 0 1-1.5-1.5 1.5 1.5 0 0 1 1.5-1.5 1.5 1.5 0 0 1 1.5 1.5z"/><path style="fill:#bdc3c7" d="M18 15.5a1.5 1.5 0 0 1-1.5 1.5 1.5 1.5 0 0 1-1.5-1.5 1.5 1.5 0 0 1 1.5-1.5 1.5 1.5 0 0 1 1.5 1.5z"/><path style="fill:#fff;opacity:.2" d="M16.5 1A14.5 14.5 0 0 0 2 15.5a14.5 14.5 0 0 0 .021.58A14.5 14.5 0 0 1 16.5 2a14.5 14.5 0 0 1 14.479 13.92A14.5 14.5 0 0 0 31 15.5 14.5 14.5 0 0 0 16.5 1z"/><path style="fill:#fff;opacity:.2" d="M16.5 14a1.5 1.5 0 0 0-1.5 1.5 1.5 1.5 0 0 0 .088.5 1.5 1.5 0 0 1 1.412-1 1.5 1.5 0 0 1 1.412 1 1.5 1.5 0 0 0 .088-.5 1.5 1.5 0 0 0-1.5-1.5z"/></svg>
